X: 537
T:Autumn's Child
M:4/4
L:1/8
Q:140
C:Brendan O'Regan
Z:Craig Herrity
N:Posted to the woodenflute mailing list June 2002
K:A dor
defg|:e2a2 g3a|~ f2ed eABA|GABc d2ef| g2fe defg| e2AB c2dc| B2AB G2ED| E
2AB cded|1 c2BG A2cd:|2c2BG A2e=f|:
e2AB c2dc| B2AB G2ED| EAAB cdef| g2fe defg| e2AB c2dc|B2AB G2ED| EAAB cd
ed|1c2BG A2e=f:|2 c2BG A2cd||

